src/topics/icons/jspm.svg

<svg height="254" preserveAspectRatio="xMidYMid" viewBox="0 0 256 254" width="256" xmlns="http://www.w3.org/2000/svg"><path d="m33.0104262 75.3587572 93.9548528-42.6725458 96.024295 42.6725458v103.9368648l-96.024295 41.986421-93.9548528-36.480822z" fill="#eedb88"/><path d="m126.616684.64306923-125.88179714 57.17523537v146.6315434l125.88179714 48.875337 128.648429-56.25118v-139.2557004zm-16.140537 203.80677877-71.932455-32.275539v-70.089878l71.932455 29.508906zm-56.2511798-134.6409564 73.7750328-32.2810726 71.932455 32.2810726-73.315771 32.2755394zm161.3832298 101.4413614-70.084344 33.199595v-72.856511l70.084344-29.508906z" fill="#959595"/></svg>

<?xml version="1.0" encoding="UTF-8" standalone="no" ?>
<svg width="256px" height="254px" viewBox="0 0 256 254" version="1.1" xmlns="http://www.w3.org/2000/svg" xmlns:xlink="http://www.w3.org/1999/xlink" preserveAspectRatio="xMidYMid">
    <g>
        <path d="M33.0104262,75.3587572 L126.965279,32.6862114 L222.989574,75.3587572 L222.989574,179.295622 L126.965279,221.282043 L33.0104262,184.801221 L33.0104262,75.3587572" fill="#EEDB88"></path>
        <path d="M126.616684,0.643069233 L0.734886863,57.8183046 L0.734886863,204.449848 L126.616684,253.325185 L255.265113,197.074005 L255.265113,57.8183046 L126.616684,0.643069233 L126.616684,0.643069233 Z M110.476147,204.449848 L38.543692,172.174309 L38.543692,102.084431 L110.476147,131.593337 L110.476147,204.449848 L110.476147,204.449848 Z M54.2249672,69.8088916 L128,37.527819 L199.932455,69.8088916 L126.616684,102.084431 L54.2249672,69.8088916 L54.2249672,69.8088916 Z M215.608197,171.250253 L145.523853,204.449848 L145.523853,131.593337 L215.608197,102.084431 L215.608197,171.250253 L215.608197,171.250253 Z" fill="#959595"></path>
    </g>
</svg>
